X: 256
T: When I Crossed the Valley
B: O'Neill's 256
N: "Moderate"
N: "Collected by J.O'Neill"
Z: 1997 by John Chambers <jc@trillian.mit.edu>
M: C
L: 1/8
K:F
c>B \
|BAGF f3g|fga2gf fedc|d3c AGAc|d2ef f2cB|
|BAGF f3g|fga2gf fedc|defg agfe|~d3e f2||
||gf \
|fedc c2a2|gede c2AB|c3d cdcA|c3d/e/ f3e|
|dcdf ed2c.A|cA cd/e/ f3g|gagfd cd/e/ fB|A3G F2||
